source/images/icons/icon-editorial/banc.svg

<?xml version="1.0" encoding="UTF-8"?>
<svg width="80px" height="80px" viewBox="0 0 80 80" version="1.1" xmlns="http://www.w3.org/2000/svg" xmlns:xlink="http://www.w3.org/1999/xlink">
    <!-- Generator: Sketch 55.2 (78181) - https://sketchapp.com -->
    <title>Illustrative Icons/Banc</title>
    <desc>Created with Sketch.</desc>
    <g id="Illustrative-Icons/Banc" stroke="none" stroke-width="1" fill="none" fill-rule="evenodd">
        <path d="M72,40.3333334 C72.9204747,40.3333334 73.6666667,39.5871413 73.6666667,38.6666667 L73.6666667,23.6666667 C73.6666667,22.7461921 72.9204747,22 72,22 C71.0795255,22 70.3333334,22.7461921 70.3333334,23.6666667 L70.3333334,37 L10.3333333,37 L10.3333333,25.3333333 L65.3333334,25.3333333 C66.253808,25.3333333 67,24.5871413 67,23.6666667 C67,22.7461921 66.253808,22 65.3333334,22 L8.66666667,22 C7.74619208,22 7,22.7461921 7,23.6666667 L7,38.6666667 C7,39.5871413 7.74619208,40.3333334 8.66666667,40.3333334 L15.3333333,40.3333334 L15.3333333,45.3333334 L8.66666667,45.3333334 C7.74619208,45.3333334 7,46.0795254 7,47 L7,53.6666667 C7,54.5871413 7.74619208,55.3333334 8.66666667,55.3333334 L15.3333333,55.3333334 L15.3333333,62 L13.6666667,62 C12.7461921,62 12,62.7461921 12,63.6666667 C12,64.5871413 12.7461921,65.3333334 13.6666667,65.3333334 L20.3333333,65.3333334 C21.2538079,65.3333334 22,64.5871413 22,63.6666667 C22,62.7461921 21.2538079,62 20.3333333,62 L18.6666667,62 L18.6666667,55.3333334 L62,55.3333334 L62,62 L60.3333334,62 C59.4128588,62 58.6666667,62.7461921 58.6666667,63.6666667 C58.6666667,64.5871413 59.4128588,65.3333334 60.3333334,65.3333334 L67,65.3333334 C67.9204747,65.3333334 68.6666667,64.5871413 68.6666667,63.6666667 C68.6666667,62.7461921 67.9204747,62 67,62 L65.3333334,62 L65.3333334,55.3333334 L72,55.3333334 C72.9204747,55.3333334 73.6666667,54.5871413 73.6666667,53.6666667 L73.6666667,47 C73.6666667,46.0795254 72.9204747,45.3333334 72,45.3333334 L65.3333334,45.3333334 L65.3333334,40.3333334 L72,40.3333334 Z M70.3333333,48.6666667 L70.3333333,52 L10.3333333,52 L10.3333333,48.6666667 L70.3333333,48.6666667 Z M62.0000001,45.3333334 L18.6666667,45.3333334 L18.6666667,40.3333334 L62.0000001,40.3333334 L62.0000001,45.3333334 Z M17,32.8333333 C17.9204746,32.8333333 18.6666667,32.0871413 18.6666667,31.1666667 C18.6666667,30.2461921 17.9204746,29.5 17,29.5 C16.0795254,29.5 15.3333333,30.2461921 15.3333333,31.1666667 C15.3333333,32.0871413 16.0795254,32.8333333 17,32.8333333 Z M63.6666667,32.8333333 C64.5871413,32.8333333 65.3333334,32.0871413 65.3333334,31.1666667 C65.3333334,30.2461921 64.5871413,29.5 63.6666667,29.5 C62.7461922,29.5 62.0000001,30.2461921 62.0000001,31.1666667 C62.0000001,32.0871413 62.7461922,32.8333333 63.6666667,32.8333333 Z" id="Shape-color" fill="#ADB5BD"></path>
    </g>
</svg>

<svg width="80" height="80">
    <title>
        Illustrative Icons/Banc
    </title>
    <path d="M72 40.333c.92 0 1.667-.746 1.667-1.666v-15a1.667 1.667 0 1 0-3.334 0V37h-60V25.333h55a1.667 1.667 0 1 0 0-3.333H8.667C7.747 22 7 22.746 7 23.667v15c0 .92.746 1.666 1.667 1.666h6.666v5H8.667C7.747 45.333 7 46.08 7 47v6.667c0 .92.746 1.666 1.667 1.666h6.666V62h-1.666a1.667 1.667 0 0 0 0 3.333h6.666a1.667 1.667 0 0 0 0-3.333h-1.666v-6.667H62V62h-1.667a1.667 1.667 0 0 0 0 3.333H67A1.667 1.667 0 1 0 67 62h-1.667v-6.667H72c.92 0 1.667-.746 1.667-1.666V47c0-.92-.747-1.667-1.667-1.667h-6.667v-5H72zm-1.667 8.334V52h-60v-3.333h60zM62 45.333H18.667v-5H62v5zm-45-12.5a1.667 1.667 0 1 0 0-3.333 1.667 1.667 0 0 0 0 3.333zm46.667 0a1.667 1.667 0 1 0 0-3.333 1.667 1.667 0 0 0 0 3.333z" fill="#ADB5BD" fill-rule="evenodd"/>
</svg>
